accenture.svg

<svg version="1.1" id="Layer_1" xmlns="http://www.w3.org/2000/svg" xmlns:xlink="http://www.w3.org/1999/xlink" x="0px" y="0px" viewBox="0 0 163.2 43" style="enable-background:new 0 0 163.2 43;" xml:space="preserve">
 <style type="text/css">
  .st0{fill:#A100FF;}
 </style>
 <g>
  <polygon class="st0" points="95.1,12 104.5,8.5 95.1,4.9 95.1,0 111.2,6.5 111.2,10.5 95.1,17 	">
  </polygon>
  <path d="M6.2,43C2.8,43,0,41.3,0,37.5v-0.2c0-4.6,4-6.2,8.9-6.2h2.3v-0.9c0-1.9-0.8-3-2.8-3c-1.8,0-2.7,1-2.8,2.4h-5
		c0.4-4.2,3.7-6.2,8.1-6.2c4.5,0,7.8,1.9,7.8,6.6v12.6h-5.1v-2.2C10.4,41.8,8.7,43,6.2,43z M11.2,36.4v-1.8H9.1
		c-2.6,0-3.9,0.7-3.9,2.4v0.2c0,1.3,0.8,2.2,2.6,2.2C9.6,39.3,11.2,38.3,11.2,36.4z M28.4,43c-5.2,0-9-3.2-9-9.6v-0.3
		c0-6.4,4-9.8,9-9.8c4.3,0,7.8,2.2,8.2,7.1h-5c-0.3-1.8-1.3-3-3.1-3c-2.2,0-3.8,1.8-3.8,5.5v0.6c0,3.8,1.4,5.5,3.8,5.5
		c1.8,0,3.1-1.3,3.4-3.4h4.8C36.4,40,33.5,43,28.4,43z M48,43c-5.2,0-9-3.2-9-9.6v-0.3c0-6.4,4-9.8,9-9.8c4.3,0,7.8,2.2,8.2,7.1h-5
		c-0.3-1.8-1.3-3-3.1-3c-2.2,0-3.8,1.8-3.8,5.5v0.6c0,3.8,1.4,5.5,3.8,5.5c1.8,0,3.1-1.3,3.4-3.4h4.8C56,40,53.1,43,48,43z M67.7,43
		c-5.4,0-9.1-3.2-9.1-9.5v-0.4c0-6.3,3.9-9.8,9-9.8c4.7,0,8.6,2.6,8.6,8.9v2.3H63.9c0.2,3.4,1.7,4.7,3.9,4.7c2,0,3.1-1.1,3.5-2.4
		h4.9C75.6,40.3,72.6,43,67.7,43z M64,31H71c-0.1-2.8-1.4-4-3.5-4C65.9,27.1,64.4,28,64,31z M79.4,23.8h5.3v2.8
		c0.9-1.8,2.8-3.2,5.7-3.2c3.4,0,5.7,2.1,5.7,6.6v12.6h-5.3V30.8c0-2.2-0.9-3.2-2.8-3.2c-1.8,0-3.3,1.1-3.3,3.5v11.5h-5.3V23.8z
		 M105.8,18.1v5.7h3.6v3.9h-3.6v8.9c0,1.4,0.6,2.1,1.9,2.1c0.8,0,1.3-0.1,1.8-0.3v4.1c-0.6,0.2-1.7,0.4-3,0.4c-4.1,0-6-1.9-6-5.7
		v-9.5h-2.2v-3.9h2.2v-3.5L105.8,18.1z M129.2,42.6H124v-2.8c-0.9,1.8-2.7,3.2-5.5,3.2c-3.4,0-5.9-2.1-5.9-6.5V23.8h5.3v12
		c0,2.2,0.9,3.2,2.7,3.2c1.8,0,3.3-1.2,3.3-3.5V23.8h5.3V42.6z M133.1,23.8h5.3v3.5c1.1-2.5,2.9-3.7,5.7-3.7v5.2
		c-3.6,0-5.7,1.1-5.7,4.2v9.7h-5.3V23.8z M154.8,43c-5.4,0-9.1-3.2-9.1-9.5v-0.4c0-6.3,3.9-9.8,9-9.8c4.7,0,8.6,2.6,8.6,8.9v2.3
		h-12.2c0.2,3.4,1.7,4.7,3.9,4.7c2,0,3.1-1.1,3.5-2.4h4.9C162.6,40.3,159.7,43,154.8,43z M151,31h7.1c-0.1-2.8-1.4-4-3.5-4
		C153,27.1,151.5,28,151,31z">
  </path>
 </g>
</svg>

<?xml version="1.0" encoding="UTF-8" standalone="no"?>
<!DOCTYPE svg PUBLIC "-//W3C//DTD SVG 1.1//EN" "http://www.w3.org/Graphics/SVG/1.1/DTD/svg11.dtd">
<svg width="100%" height="100%" viewBox="0 0 1800 200" version="1.1" xmlns="http://www.w3.org/2000/svg" xmlns:xlink="http://www.w3.org/1999/xlink" xml:space="preserve" xmlns:serif="http://www.serif.com/" style="fill-rule:evenodd;clip-rule:evenodd;stroke-linejoin:round;stroke-miterlimit:2;">
    <g id="Accenture">
        <g transform="matrix(4.60481,0,0,4.60481,0,0)">
            <path d="M95.1,12L104.5,8.5L95.1,4.9L95.1,0L111.2,6.5L111.2,10.5L95.1,17L95.1,12Z" style="fill:rgb(161,0,255);fill-rule:nonzero;"/>
        </g>
        <g transform="matrix(4.60481,0,0,4.60481,0,0)">
            <path d="M6.2,43C2.8,43 0,41.3 0,37.5L0,37.3C0,32.7 4,31.1 8.9,31.1L11.2,31.1L11.2,30.2C11.2,28.3 10.4,27.2 8.4,27.2C6.6,27.2 5.7,28.2 5.6,29.6L0.6,29.6C1,25.4 4.3,23.4 8.7,23.4C13.2,23.4 16.5,25.3 16.5,30L16.5,42.6L11.4,42.6L11.4,40.4C10.4,41.8 8.7,43 6.2,43ZM11.2,36.4L11.2,34.6L9.1,34.6C6.5,34.6 5.2,35.3 5.2,37L5.2,37.2C5.2,38.5 6,39.4 7.8,39.4C9.6,39.3 11.2,38.3 11.2,36.4ZM28.4,43C23.2,43 19.4,39.8 19.4,33.4L19.4,33.1C19.4,26.7 23.4,23.3 28.4,23.3C32.7,23.3 36.2,25.5 36.6,30.4L31.6,30.4C31.3,28.6 30.3,27.4 28.5,27.4C26.3,27.4 24.7,29.2 24.7,32.9L24.7,33.5C24.7,37.3 26.1,39 28.5,39C30.3,39 31.6,37.7 31.9,35.6L36.7,35.6C36.4,40 33.5,43 28.4,43ZM48,43C42.8,43 39,39.8 39,33.4L39,33.1C39,26.7 43,23.3 48,23.3C52.3,23.3 55.8,25.5 56.2,30.4L51.2,30.4C50.9,28.6 49.9,27.4 48.1,27.4C45.9,27.4 44.3,29.2 44.3,32.9L44.3,33.5C44.3,37.3 45.7,39 48.1,39C49.9,39 51.2,37.7 51.5,35.6L56.3,35.6C56,40 53.1,43 48,43ZM67.7,43C62.3,43 58.6,39.8 58.6,33.5L58.6,33.1C58.6,26.8 62.5,23.3 67.6,23.3C72.3,23.3 76.2,25.9 76.2,32.2L76.2,34.5L63.9,34.5C64.1,37.9 65.6,39.2 67.8,39.2C69.8,39.2 70.9,38.1 71.3,36.8L76.2,36.8C75.6,40.3 72.6,43 67.7,43ZM64,31L71,31C70.9,28.2 69.6,27 67.5,27C65.9,27.1 64.4,28 64,31ZM79.4,23.8L84.7,23.8L84.7,26.6C85.6,24.8 87.5,23.4 90.4,23.4C93.8,23.4 96.1,25.5 96.1,30L96.1,42.6L90.8,42.6L90.8,30.8C90.8,28.6 89.9,27.6 88,27.6C86.2,27.6 84.7,28.7 84.7,31.1L84.7,42.6L79.4,42.6L79.4,23.8ZM105.8,18.1L105.8,23.8L109.4,23.8L109.4,27.7L105.8,27.7L105.8,36.6C105.8,38 106.4,38.7 107.7,38.7C108.5,38.7 109,38.6 109.5,38.4L109.5,42.5C108.9,42.7 107.8,42.9 106.5,42.9C102.4,42.9 100.5,41 100.5,37.2L100.5,27.7L98.3,27.7L98.3,23.8L100.5,23.8L100.5,20.3L105.8,18.1ZM129.2,42.6L124,42.6L124,39.8C123.1,41.6 121.3,43 118.5,43C115.1,43 112.6,40.9 112.6,36.5L112.6,23.8L117.9,23.8L117.9,35.8C117.9,38 118.8,39 120.6,39C122.4,39 123.9,37.8 123.9,35.5L123.9,23.8L129.2,23.8L129.2,42.6ZM133.1,23.8L138.4,23.8L138.4,27.3C139.5,24.8 141.3,23.6 144.1,23.6L144.1,28.8C140.5,28.8 138.4,29.9 138.4,33L138.4,42.7L133.1,42.7L133.1,23.8ZM154.8,43C149.4,43 145.7,39.8 145.7,33.5L145.7,33.1C145.7,26.8 149.6,23.3 154.7,23.3C159.4,23.3 163.3,25.9 163.3,32.2L163.3,34.5L151.1,34.5C151.3,37.9 152.8,39.2 155,39.2C157,39.2 158.1,38.1 158.5,36.8L163.4,36.8C162.6,40.3 159.7,43 154.8,43ZM151,31L158.1,31C158,28.2 156.7,27 154.6,27C153,27.1 151.5,28 151,31Z" style="fill-rule:nonzero;"/>
        </g>
    </g>
</svg>
